assets/images/script/j-4-bot.svg

<svg fill="none" height="241" viewBox="0 0 270 241" width="270" xmlns="http://www.w3.org/2000/svg"><path d="m141.759 8.18617c-31.095 0-58.259-1.12509-89.5936-1.12509-16.6654 0-32.3805-1.06771-48.64661-3.57018-.96221-.14803 1.88421 1.80685 2.0963 2.03465 6.24091 6.70325 10.67651 15.34305 15.47561 23.05935 19.4296 31.2397 34.4685 51.925 43.6601 87.8071 7.0269 27.432 12.398 85.208-.6782 111.806-5.6083 11.408-17.8949 14.848-20.8397.123-5.3032-26.516-.2309-81.406 13.1944-104.9 9.7095-16.992 28.4648-28.8766 48.4617-27.93 18.511.8763 24.149 13.991 24.477 30.89.25 12.881-.866 14.381 1.322 27.014.476 1.619 2.348-2.577 2.836-4.192 2.29-7.58 2.976-14.941 4.461-22.505 2.932-14.936 2.802-24.384 18.683-28.5751 15.776-4.1632 43.385-2.4025 58.893.1039 15.419 2.4922 31.23 2.0302 46.797 3.3642 5.749.493 6.58-.533 1.48-3.0829" stroke="#000" stroke-linecap="round" stroke-width="5"/></svg>

<svg width="270" height="241" viewBox="0 0 270 241" fill="none" xmlns="http://www.w3.org/2000/svg">
<path d="M141.759 8.18617C110.664 8.18617 83.5 7.06108 52.1654 7.06108C35.5 7.06108 19.7849 5.99337 3.51879 3.4909C2.55658 3.34287 5.403 5.29775 5.61509 5.52555C11.856 12.2288 16.2916 20.8686 21.0907 28.5849C40.5203 59.8246 55.5592 80.5099 64.7508 116.392C71.7777 143.824 77.1488 201.6 64.0726 228.198C58.4643 239.606 46.1777 243.046 43.2329 228.321C37.9297 201.805 43.002 146.915 56.4273 123.421C66.1368 106.429 84.8921 94.5444 104.889 95.491C123.4 96.3673 129.038 109.482 129.366 126.381C129.616 139.262 128.5 140.762 130.688 153.395C131.164 155.014 133.036 150.818 133.524 149.203C135.814 141.623 136.5 134.262 137.985 126.698C140.917 111.762 140.787 102.314 156.668 98.1229C172.444 93.9597 200.053 95.7204 215.561 98.2268C230.98 100.719 246.791 100.257 262.358 101.591C268.107 102.084 268.938 101.058 263.838 98.5081" stroke="black" stroke-width="5" stroke-linecap="round"/>
</svg>
